X: 43304
T: Woods Hole Fisherman
R: reel
M: 4/4
K: Aminor
EAcA BcdB|caa^g aba=g|e^fge dB (3BAB|cABG AGED|
EAcA BcdB|caa^g aba=g|ecgc Bdgf|ecdB A4:|
c2 ec gcec|fedf ecAB|c2 ec gcec|eaab a2 gf|
e2 de ceBe|A2 GA FADA|EAcA Bdgf|ecdB A4:|

